X:1
T:Milky Way, The
M:4/4
L:1/8
R:reel
K:Dmaj
| D2 (3FED FAAB | d2 fd efdA | D2 (3FED FAAd | BF~F2 BFAF |
| D2 (3FED FAAB | d2 fd efde | f2 fdL BAFB | AFEG [1FDED :| [2FD2 |
|e| f2dB BAFA | d2 fd efde | f2 dB BAFA | DFF2  BFAd |
| f2 dB BAFA | d2 fd efde | f2 fd efdB | AFEG FD D2:||

